/* XPM */
static const char * tb_lists_dashed_xpm[] = {
"24 24 4 1",
" 	c None",
".	c #4D4D4D",
"+	c #9E9E9E",
"#	c #C8C8C8",
"                        ",
"                        ",
"                        ",
"                        ",
"   ..   ++++++++++      ",
"   ..   ##########      ",
"                        ",
"                        ",
"   ..   ++++++++++      ",
"   ..   ##########      ",
"                        ",
"                        ",
"   ..   ++++++++++      ",
"   ..   ##########      ",
"                        ",
"                        ",
"   ..   ++++++++++      ",
"   ..   ##########      ",
"                        ",
"                        ",
"   ..   ++++++++++      ",
"   ..   ##########      ",
"                        ",
"                        "};
